remix/System/login-circle-line.svg

<svg viewBox="0 0 24 24" fill="currentColor" xmlns="http://www.w3.org/2000/svg"><path d="M10 11V8L15 12L10 16V13H1V11H10ZM2.4578 15H4.58152C5.76829 17.9318 8.64262 20 12 20C16.4183 20 20 16.4183 20 12C20 7.58172 16.4183 4 12 4C8.64262 4 5.76829 6.06817 4.58152 9H2.4578C3.73207 4.94289 7.52236 2 12 2C17.5228 2 22 6.47715 22 12C22 17.5228 17.5228 22 12 22C7.52236 22 3.73207 19.0571 2.4578 15Z"/></svg>

<svg viewBox="0 0 24 24" xmlns="http://www.w3.org/2000/svg"><path fill="none" d="M0 0h24v24H0Z"/><path d="M10 11V8l5 4 -5 4v-3H1v-2h9Zm-7.542 4h2.12l0 0c1.66 4.09 6.33 6.06 10.42 4.4 3.01-1.23 4.98-4.16 4.99-7.41v0c0-4.42-3.58-8.01-8-8.01 -3.27-.01-6.21 1.97-7.43 5h-2.13c1.274-4.06 5.064-7 9.542-7 5.523 0 10 4.477 10 10s-4.477 10-10 10c-4.48 0-8.27-2.95-9.542-7Z"/></svg>
